X: 9229
T: Dan Collins' Father's
R: jig
M: 6/8
K: Dmajor
|:f2 e|d2 A BAB|Adf a2 f|gBB e2 d|cAA Ag/f/e|
d2 A BAB|Adf a2 f|ged cBc|1 d3:|2 d3-||
|:dfe|dAA fAA|afe def|gBB e2 d|cAA Afe|
[1 dAA fAA|afe def|ged cBc|d3-:|
[2 d2 A BAB|Adf a2 f|ged cBc|d3||

